X: 27
T:Bec a bec
M:3/4
L:1/8
R:Mazurka
Z:Steve Mansfield
K:C
e2 e>f e>d | c2 A2 B>c | d2 d>e f>d | e>d c>B A>G |
e2 e>f e>d | c2 A2 B>c | d>e f>d B>G |1 c2 c>G A>G :|2 c4 |
|: e>f | e>d c2 e>f | e>d c2 g2 | f2 d>f d>f | e>d c2 e>f |
e>d c2 e>f | e>d c2 g2 | f2 d>f d>B |1 c4 :|2 c6 ||
<end>
<start>
